bernoullicharts/2014_add_x_0_2_bits.svg

<?xml version="1.0" encoding="utf-8" standalone="no"?>
<!DOCTYPE svg PUBLIC "-//W3C//DTD SVG 1.1//EN"
  "http://www.w3.org/Graphics/SVG/1.1/DTD/svg11.dtd">
<!-- Created with matplotlib (https://matplotlib.org/) -->
<svg height="345.6pt" version="1.1" viewBox="0 0 460.8 345.6" width="460.8pt" xmlns="http://www.w3.org/2000/svg" xmlns:xlink="http://www.w3.org/1999/xlink">
 <defs>
  <style type="text/css">
*{stroke-linecap:butt;stroke-linejoin:round;}
  </style>
 </defs>
 <g id="figure_1">
  <g id="patch_1">
   <path d="M 0 345.6 
L 460.8 345.6 
L 460.8 0 
L 0 0 
z
" style="fill:#ffffff;"/>
  </g>
  <g id="axes_1">
   <g id="patch_2">
    <path d="M 57.6 307.584 
L 414.72 307.584 
L 414.72 41.472 
L 57.6 41.472 
z
" style="fill:#ffffff;"/>
   </g>
   <g id="matplotlib.axis_1">
    <g id="xtick_1">
     <g id="line2d_1">
      <defs>
       <path d="M 0 0 
L 0 3.5 
" id="md40d08387b" style="stroke:#000000;stroke-width:0.8;"/>
      </defs>
      <g>
       <use style="stroke:#000000;stroke-width:0.8;" x="73.780877" xlink:href="#md40d08387b" y="307.584"/>
      </g>
     </g>
     <g id="text_1">
      <text style="font-family:DejaVu Sans;font-size:10px;font-style:normal;font-weight:normal;text-anchor:middle;" transform="rotate(-0, 73.780877, 322.182437)" x="73.780877" y="322.182437">0.0</text>
     </g>
    </g>
    <g id="xtick_2">
     <g id="line2d_2">
      <g>
       <use style="stroke:#000000;stroke-width:0.8;" x="125.631247" xlink:href="#md40d08387b" y="307.584"/>
      </g>
     </g>
     <g id="text_2">
      <text style="font-family:DejaVu Sans;font-size:10px;font-style:normal;font-weight:normal;text-anchor:middle;" transform="rotate(-0, 125.631247, 322.182437)" x="125.631247" y="322.182437">0.1</text>
     </g>
    </g>
    <g id="xtick_3">
     <g id="line2d_3">
      <g>
       <use style="stroke:#000000;stroke-width:0.8;" x="177.481617" xlink:href="#md40d08387b" y="307.584"/>
      </g>
     </g>
     <g id="text_3">
      <text style="font-family:DejaVu Sans;font-size:10px;font-style:normal;font-weight:normal;text-anchor:middle;" transform="rotate(-0, 177.481617, 322.182437)" x="177.481617" y="322.182437">0.2</text>
     </g>
    </g>
    <g id="xtick_4">
     <g id="line2d_4">
      <g>
       <use style="stroke:#000000;stroke-width:0.8;" x="229.331987" xlink:href="#md40d08387b" y="307.584"/>
      </g>
     </g>
     <g id="text_4">
      <text style="font-family:DejaVu Sans;font-size:10px;font-style:normal;font-weight:normal;text-anchor:middle;" transform="rotate(-0, 229.331987, 322.182437)" x="229.331987" y="322.182437">0.3</text>
     </g>
    </g>
    <g id="xtick_5">
     <g id="line2d_5">
      <g>
       <use style="stroke:#000000;stroke-width:0.8;" x="281.182357" xlink:href="#md40d08387b" y="307.584"/>
      </g>
     </g>
     <g id="text_5">
      <text style="font-family:DejaVu Sans;font-size:10px;font-style:normal;font-weight:normal;text-anchor:middle;" transform="rotate(-0, 281.182357, 322.182437)" x="281.182357" y="322.182437">0.4</text>
     </g>
    </g>
    <g id="xtick_6">
     <g id="line2d_6">
      <g>
       <use style="stroke:#000000;stroke-width:0.8;" x="333.032727" xlink:href="#md40d08387b" y="307.584"/>
      </g>
     </g>
     <g id="text_6">
      <text style="font-family:DejaVu Sans;font-size:10px;font-style:normal;font-weight:normal;text-anchor:middle;" transform="rotate(-0, 333.032727, 322.182437)" x="333.032727" y="322.182437">0.5</text>
     </g>
    </g>
    <g id="xtick_7">
     <g id="line2d_7">
      <g>
       <use style="stroke:#000000;stroke-width:0.8;" x="384.883097" xlink:href="#md40d08387b" y="307.584"/>
      </g>
     </g>
     <g id="text_7">
      <text style="font-family:DejaVu Sans;font-size:10px;font-style:normal;font-weight:normal;text-anchor:middle;" transform="rotate(-0, 384.883097, 322.182437)" x="384.883097" y="322.182437">0.6</text>
     </g>
    </g>
    <g id="text_8">
     <text style="font-family:DejaVu Sans;font-size:10px;font-style:normal;font-weight:normal;text-anchor:middle;" transform="rotate(-0, 236.16, 335.860562)" x="236.16" y="335.860562">Probability</text>
    </g>
   </g>
   <g id="matplotlib.axis_2">
    <g id="ytick_1">
     <g id="line2d_8">
      <defs>
       <path d="M 0 0 
L -3.5 0 
" id="m4443135555" style="stroke:#000000;stroke-width:0.8;"/>
      </defs>
      <g>
       <use style="stroke:#000000;stroke-width:0.8;" x="57.6" xlink:href="#m4443135555" y="268.643095"/>
      </g>
     </g>
     <g id="text_9">
      <text style="font-family:DejaVu Sans;font-size:10px;font-style:normal;font-weight:normal;text-anchor:end;" transform="rotate(-0, 50.6, 272.442314)" x="50.6" y="272.442314">100</text>
     </g>
    </g>
    <g id="ytick_2">
     <g id="line2d_9">
      <g>
       <use style="stroke:#000000;stroke-width:0.8;" x="57.6" xlink:href="#m4443135555" y="224.281616"/>
      </g>
     </g>
     <g id="text_10">
      <text style="font-family:DejaVu Sans;font-size:10px;font-style:normal;font-weight:normal;text-anchor:end;" transform="rotate(-0, 50.6, 228.080835)" x="50.6" y="228.080835">200</text>
     </g>
    </g>
    <g id="ytick_3">
     <g id="line2d_10">
      <g>
       <use style="stroke:#000000;stroke-width:0.8;" x="57.6" xlink:href="#m4443135555" y="179.920138"/>
      </g>
     </g>
     <g id="text_11">
      <text style="font-family:DejaVu Sans;font-size:10px;font-style:normal;font-weight:normal;text-anchor:end;" transform="rotate(-0, 50.6, 183.719356)" x="50.6" y="183.719356">300</text>
     </g>
    </g>
    <g id="ytick_4">
     <g id="line2d_11">
      <g>
       <use style="stroke:#000000;stroke-width:0.8;" x="57.6" xlink:href="#m4443135555" y="135.558659"/>
      </g>
     </g>
     <g id="text_12">
      <text style="font-family:DejaVu Sans;font-size:10px;font-style:normal;font-weight:normal;text-anchor:end;" transform="rotate(-0, 50.6, 139.357878)" x="50.6" y="139.357878">400</text>
     </g>
    </g>
    <g id="ytick_5">
     <g id="line2d_12">
      <g>
       <use style="stroke:#000000;stroke-width:0.8;" x="57.6" xlink:href="#m4443135555" y="91.197181"/>
      </g>
     </g>
     <g id="text_13">
      <text style="font-family:DejaVu Sans;font-size:10px;font-style:normal;font-weight:normal;text-anchor:end;" transform="rotate(-0, 50.6, 94.996399)" x="50.6" y="94.996399">500</text>
     </g>
    </g>
    <g id="ytick_6">
     <g id="line2d_13">
      <g>
       <use style="stroke:#000000;stroke-width:0.8;" x="57.6" xlink:href="#m4443135555" y="46.835702"/>
      </g>
     </g>
     <g id="text_14">
      <text style="font-family:DejaVu Sans;font-size:10px;font-style:normal;font-weight:normal;text-anchor:end;" transform="rotate(-0, 50.6, 50.634921)" x="50.6" y="50.634921">600</text>
     </g>
    </g>
    <g id="text_15">
     <text style="font-family:DejaVu Sans;font-size:10px;font-style:normal;font-weight:normal;text-anchor:middle;" transform="rotate(-90, 25.432812, 174.528)" x="25.432812" y="174.528">Average Bits Consumed Per Call</text>
    </g>
   </g>
   <g id="line2d_14">
    <path clip-path="url(#p2ebdd2d03b)" d="M 73.832727 295.488 
L 79.069091 293.395913 
L 84.305455 291.627664 
L 89.541818 292.411975 
L 94.778182 294.613192 
L 100.014545 294.134088 
L 105.250909 291.935533 
M 115.723636 294.175787 
L 120.96 293.198948 
L 126.196364 291.215102 
L 131.432727 295.245786 
L 136.669091 292.770416 
L 141.905455 293.146601 
L 147.141818 294.272495 
L 152.378182 293.308964 
L 157.614545 290.413047 
L 162.850909 290.093644 
L 168.087273 289.14076 
L 173.323636 288.385727 
L 178.56 290.898361 
L 183.796364 289.185121 
L 189.032727 289.16294 
L 194.269091 288.692709 
L 199.505455 290.992408 
L 204.741818 288.550752 
L 209.978182 291.162756 
L 215.214545 284.988525 
L 220.450909 285.713392 
L 225.687273 288.957103 
L 230.923636 285.649511 
L 236.16 287.919932 
L 241.396364 291.495467 
L 246.632727 278.90213 
L 251.869091 284.380773 
L 257.105455 284.708161 
L 262.341818 287.345007 
L 267.578182 286.322031 
L 272.814545 281.96396 
L 278.050909 280.358961 
L 283.287273 286.495928 
L 288.523636 286.567794 
L 293.76 282.426206 
L 298.996364 278.276634 
L 304.232727 284.414488 
L 309.469091 283.118245 
L 314.705455 276.616627 
M 325.178182 283.332068 
L 330.414545 281.542526 
L 335.650909 275.083494 
L 340.887273 265.573281 
L 346.123636 274.195378 
L 351.36 269.840855 
L 356.596364 276.943127 
M 377.541818 267.182715 
L 382.778182 257.638786 
L 388.014545 265.600785 
M 398.487273 260.207316 
" style="fill:none;stroke:#1f77b4;stroke-linecap:square;stroke-width:1.5;"/>
   </g>
   <g id="line2d_15">
    <path clip-path="url(#p2ebdd2d03b)" d="M 73.832727 276.305209 
L 79.069091 275.634464 
L 84.305455 276.017747 
L 89.541818 276.499513 
L 94.778182 275.469439 
L 100.014545 271.496425 
L 105.250909 273.36848 
L 110.487273 271.841557 
L 115.723636 270.335929 
L 120.96 270.494743 
L 126.196364 271.134435 
L 131.432727 271.590471 
L 136.669091 271.511508 
L 141.905455 272.163622 
L 147.141818 268.633335 
L 152.378182 269.745034 
L 157.614545 264.847527 
L 162.850909 265.203306 
L 168.087273 264.463356 
L 173.323636 264.509492 
L 178.56 266.89614 
L 183.796364 263.22922 
L 189.032727 263.559269 
L 194.269091 263.323266 
L 199.505455 257.902294 
L 204.741818 261.427257 
L 209.978182 258.57925 
L 215.214545 262.650746 
L 220.450909 258.891555 
L 225.687273 260.319994 
L 230.923636 249.116059 
L 236.16 252.767896 
L 241.396364 257.251954 
L 246.632727 253.965656 
L 251.869091 260.593261 
L 257.105455 246.418881 
L 262.341818 244.097002 
L 267.578182 251.453022 
L 272.814545 251.685476 
L 278.050909 231.474386 
L 283.287273 235.946911 
L 288.523636 241.118572 
L 293.76 241.960553 
L 298.996364 232.633995 
L 304.232727 235.124449 
L 309.469091 228.650335 
L 314.705455 227.897077 
L 319.941818 219.952823 
L 325.178182 214.341983 
L 330.414545 226.642534 
L 335.650909 206.694064 
M 346.123636 214.886742 
L 351.36 197.468651 
L 356.596364 197.048105 
M 367.069091 187.934482 
L 372.305455 183.518741 
L 377.541818 180.141058 
L 382.778182 185.774966 
" style="fill:none;stroke:#ff7f0e;stroke-linecap:square;stroke-width:1.5;"/>
   </g>
   <g id="line2d_16">
    <path clip-path="url(#p2ebdd2d03b)" d="M 225.687273 53.568 
M 241.396364 121.67884 
M 257.105455 170.503083 
L 262.341818 182.362681 
M 272.814545 190.179173 
L 278.050909 200.086866 
M 288.523636 226.810221 
L 293.76 218.503977 
M 304.232727 225.088108 
M 314.705455 227.178421 
L 319.941818 243.776712 
M 330.414545 261.684553 
" style="fill:none;stroke:#2ca02c;stroke-linecap:square;stroke-width:1.5;"/>
   </g>
   <g id="patch_3">
    <path d="M 57.6 307.584 
L 57.6 41.472 
" style="fill:none;stroke:#000000;stroke-linecap:square;stroke-linejoin:miter;stroke-width:0.8;"/>
   </g>
   <g id="patch_4">
    <path d="M 414.72 307.584 
L 414.72 41.472 
" style="fill:none;stroke:#000000;stroke-linecap:square;stroke-linejoin:miter;stroke-width:0.8;"/>
   </g>
   <g id="patch_5">
    <path d="M 57.6 307.584 
L 414.72 307.584 
" style="fill:none;stroke:#000000;stroke-linecap:square;stroke-linejoin:miter;stroke-width:0.8;"/>
   </g>
   <g id="patch_6">
    <path d="M 57.6 41.472 
L 414.72 41.472 
" style="fill:none;stroke:#000000;stroke-linecap:square;stroke-linejoin:miter;stroke-width:0.8;"/>
   </g>
   <g id="text_16">
    <text style="font-family:DejaVu Sans;font-size:12px;font-style:normal;font-weight:normal;text-anchor:middle;" transform="rotate(-0, 236.16, 35.472)" x="236.16" y="35.472">Avg. Bits Consumed</text>
   </g>
   <g id="legend_1">
    <g id="patch_7">
     <path d="M 291.171562 93.506375 
L 407.72 93.506375 
Q 409.72 93.506375 409.72 91.506375 
L 409.72 48.472 
Q 409.72 46.472 407.72 46.472 
L 291.171562 46.472 
Q 289.171562 46.472 289.171562 48.472 
L 289.171562 91.506375 
Q 289.171562 93.506375 291.171562 93.506375 
z
" style="fill:#ffffff;opacity:0.8;stroke:#cccccc;stroke-linejoin:miter;"/>
    </g>
    <g id="line2d_17">
     <path d="M 293.171562 54.570438 
L 313.171562 54.570438 
" style="fill:none;stroke:#1f77b4;stroke-linecap:square;stroke-width:1.5;"/>
    </g>
    <g id="line2d_18"/>
    <g id="text_17">
     <text style="font-family:DejaVu Sans;font-size:10px;font-style:normal;font-weight:normal;text-anchor:start;" transform="rotate(-0, 321.171562, 58.070438)" x="321.171562" y="58.070438">2014 Add. x+0.2</text>
    </g>
    <g id="line2d_19">
     <path d="M 293.171562 69.248563 
L 313.171562 69.248563 
" style="fill:none;stroke:#ff7f0e;stroke-linecap:square;stroke-width:1.5;"/>
    </g>
    <g id="line2d_20"/>
    <g id="text_18">
     <text style="font-family:DejaVu Sans;font-size:10px;font-style:normal;font-weight:normal;text-anchor:start;" transform="rotate(-0, 321.171562, 72.748563)" x="321.171562" y="72.748563">2016 Add. x+0.2</text>
    </g>
    <g id="line2d_21">
     <path d="M 293.171562 83.926688 
L 313.171562 83.926688 
" style="fill:none;stroke:#2ca02c;stroke-linecap:square;stroke-width:1.5;"/>
    </g>
    <g id="line2d_22"/>
    <g id="text_19">
     <text style="font-family:DejaVu Sans;font-size:10px;font-style:normal;font-weight:normal;text-anchor:start;" transform="rotate(-0, 321.171562, 87.426688)" x="321.171562" y="87.426688">2019 Add. x+0.2</text>
    </g>
   </g>
  </g>
 </g>
 <defs>
  <clipPath id="p2ebdd2d03b">
   <rect height="266.112" width="357.12" x="57.6" y="41.472"/>
  </clipPath>
 </defs>
</svg>

<svg height="460.8" viewBox="0 0 460.8 345.6" width="614.4" xmlns="http://www.w3.org/2000/svg" xmlns:xlink="http://www.w3.org/1999/xlink"><defs><style>*{stroke-linecap:butt;stroke-linejoin:round}</style></defs><g id="figure_1"><path d="M0 345.6h460.8V0H0z" fill="#fff" id="patch_1"/><g id="axes_1"><path d="M57.6 307.584h357.12V41.472H57.6z" fill="#fff" id="patch_2"/><g id="matplotlib.axis_1"><g id="xtick_1"><g id="line2d_1"><defs><path d="M0 0v3.5" id="md40d08387b" stroke="#000" stroke-width=".8"/></defs><use x="73.781" xlink:href="#md40d08387b" y="307.584" stroke="#000" stroke-width=".8"/></g><text x="73.781" y="322.182" font-family="DejaVu Sans" font-size="10" font-weight="400" text-anchor="middle" id="text_1">0.0</text></g><g id="xtick_2"><use x="125.631" xlink:href="#md40d08387b" y="307.584" stroke="#000" stroke-width=".8" id="line2d_2"/><text x="125.631" y="322.182" font-family="DejaVu Sans" font-size="10" font-weight="400" text-anchor="middle" id="text_2">0.1</text></g><g id="xtick_3"><use x="177.482" xlink:href="#md40d08387b" y="307.584" stroke="#000" stroke-width=".8" id="line2d_3"/><text x="177.482" y="322.182" font-family="DejaVu Sans" font-size="10" font-weight="400" text-anchor="middle" id="text_3">0.2</text></g><g id="xtick_4"><use x="229.332" xlink:href="#md40d08387b" y="307.584" stroke="#000" stroke-width=".8" id="line2d_4"/><text x="229.332" y="322.182" font-family="DejaVu Sans" font-size="10" font-weight="400" text-anchor="middle" id="text_4">0.3</text></g><g id="xtick_5"><use x="281.182" xlink:href="#md40d08387b" y="307.584" stroke="#000" stroke-width=".8" id="line2d_5"/><text x="281.182" y="322.182" font-family="DejaVu Sans" font-size="10" font-weight="400" text-anchor="middle" id="text_5">0.4</text></g><g id="xtick_6"><use x="333.033" xlink:href="#md40d08387b" y="307.584" stroke="#000" stroke-width=".8" id="line2d_6"/><text x="333.033" y="322.182" font-family="DejaVu Sans" font-size="10" font-weight="400" text-anchor="middle" id="text_6">0.5</text></g><g id="xtick_7"><use x="384.883" xlink:href="#md40d08387b" y="307.584" stroke="#000" stroke-width=".8" id="line2d_7"/><text x="384.883" y="322.182" font-family="DejaVu Sans" font-size="10" font-weight="400" text-anchor="middle" id="text_7">0.6</text></g><text x="236.16" y="335.861" font-family="DejaVu Sans" font-size="10" font-weight="400" text-anchor="middle" id="text_8">Probability</text></g><g id="matplotlib.axis_2"><g id="ytick_1"><g id="line2d_8"><defs><path d="M0 0h-3.5" id="m4443135555" stroke="#000" stroke-width=".8"/></defs><use x="57.6" xlink:href="#m4443135555" y="268.643" stroke="#000" stroke-width=".8"/></g><text x="50.6" y="272.442" font-family="DejaVu Sans" font-size="10" font-weight="400" text-anchor="end" id="text_9">100</text></g><g id="ytick_2"><use x="57.6" xlink:href="#m4443135555" y="224.282" stroke="#000" stroke-width=".8" id="line2d_9"/><text x="50.6" y="228.081" font-family="DejaVu Sans" font-size="10" font-weight="400" text-anchor="end" id="text_10">200</text></g><g id="ytick_3"><use x="57.6" xlink:href="#m4443135555" y="179.92" stroke="#000" stroke-width=".8" id="line2d_10"/><text x="50.6" y="183.719" font-family="DejaVu Sans" font-size="10" font-weight="400" text-anchor="end" id="text_11">300</text></g><g id="ytick_4"><use x="57.6" xlink:href="#m4443135555" y="135.559" stroke="#000" stroke-width=".8" id="line2d_11"/><text x="50.6" y="139.358" font-family="DejaVu Sans" font-size="10" font-weight="400" text-anchor="end" id="text_12">400</text></g><g id="ytick_5"><use x="57.6" xlink:href="#m4443135555" y="91.197" stroke="#000" stroke-width=".8" id="line2d_12"/><text x="50.6" y="94.996" font-family="DejaVu Sans" font-size="10" font-weight="400" text-anchor="end" id="text_13">500</text></g><g id="ytick_6"><use x="57.6" xlink:href="#m4443135555" y="46.836" stroke="#000" stroke-width=".8" id="line2d_13"/><text x="50.6" y="50.635" font-family="DejaVu Sans" font-size="10" font-weight="400" text-anchor="end" id="text_14">600</text></g><text transform="rotate(-90 25.433 174.528)" x="25.433" y="174.528" font-family="DejaVu Sans" font-size="10" font-weight="400" text-anchor="middle" id="text_15">Average Bits Consumed Per Call</text></g><path clip-path="url(#p2ebdd2d03b)" d="M73.833 295.488l5.236-2.092 5.236-1.768 5.237.784 5.236 2.201 5.237-.479 5.236-2.198m10.473 2.24l5.236-.977 5.236-1.984 5.237 4.03 5.236-2.475 5.236.377 5.237 1.125 5.236-.963 5.237-2.896 5.236-.32 5.236-.952 5.237-.755 5.236 2.512 5.236-1.713 5.237-.022 5.236-.47 5.236 2.3 5.237-2.442 5.236 2.612 5.237-6.174 5.236.724 5.236 3.244 5.237-3.307 5.236 2.27 5.236 3.575 5.237-12.593 5.236 5.479 5.236.327 5.237 2.637 5.236-1.023 5.237-4.358 5.236-1.605 5.236 6.137 5.237.072 5.236-4.142 5.236-4.15 5.237 6.138 5.236-1.296 5.236-6.501m10.473 6.715l5.237-1.79 5.236-6.459 5.236-9.51 5.237 8.622 5.236-4.354 5.236 7.102m20.946-9.76l5.236-9.544 5.237 7.962m10.472-5.394" fill="none" stroke="#1f77b4" stroke-linecap="square" stroke-width="1.5" id="line2d_14"/><path clip-path="url(#p2ebdd2d03b)" d="M73.833 276.305l5.236-.67 5.236.383 5.237.482 5.236-1.03 5.237-3.974 5.236 1.872 5.236-1.526 5.237-1.506 5.236.159 5.236.64 5.237.455 5.236-.078 5.236.652 5.237-3.53 5.236 1.111 5.237-4.897 5.236.355 5.236-.74 5.237.046 5.236 2.387 5.236-3.667 5.237.33 5.236-.236 5.236-5.42 5.237 3.524 5.236-2.848 5.237 4.072 5.236-3.76 5.236 1.429 5.237-11.204 5.236 3.652 5.236 4.484 5.237-3.286 5.236 6.627 5.236-14.174 5.237-2.322 5.236 7.356 5.237.232 5.236-20.21 5.236 4.472 5.237 5.172 5.236.842 5.236-9.327 5.237 2.49 5.236-6.474 5.236-.753 5.237-7.944 5.236-5.611 5.237 12.3 5.236-19.948m10.473 8.193l5.236-17.418 5.236-.42m10.473-9.115l5.236-4.415 5.237-3.378 5.236 5.634" fill="none" stroke="#ff7f0e" stroke-linecap="square" stroke-width="1.5" id="line2d_15"/><path clip-path="url(#p2ebdd2d03b)" d="M257.105 170.503l5.237 11.86m10.473 7.816l5.236 9.908m10.473 26.723l5.236-8.306m20.945 8.674l5.237 16.599m10.473 17.908" fill="none" stroke="#2ca02c" stroke-linecap="square" stroke-width="1.5" id="line2d_16"/><path d="M57.6 307.584V41.472" fill="none" stroke="#000" stroke-linecap="square" stroke-width=".8" id="patch_3"/><path d="M414.72 307.584V41.472" fill="none" stroke="#000" stroke-linecap="square" stroke-width=".8" id="patch_4"/><path d="M57.6 307.584h357.12" fill="none" stroke="#000" stroke-linecap="square" stroke-width=".8" id="patch_5"/><path d="M57.6 41.472h357.12" fill="none" stroke="#000" stroke-linecap="square" stroke-width=".8" id="patch_6"/><text x="236.16" y="35.472" font-family="DejaVu Sans" font-size="12" font-weight="400" text-anchor="middle" id="text_16">Avg. Bits Consumed</text><g id="legend_1"><path d="M291.172 93.506H407.72q2 0 2-2V48.472q0-2-2-2H291.172q-2 0-2 2v43.034q0 2 2 2z" fill="#fff" opacity=".8" stroke="#ccc" id="patch_7"/><path d="M293.172 54.57h20" fill="none" stroke="#1f77b4" stroke-linecap="square" stroke-width="1.5" id="line2d_17"/><text x="321.172" y="58.07" font-family="DejaVu Sans" font-size="10" font-weight="400" id="text_17">2014 Add. x+0.2</text><path d="M293.172 69.249h20" fill="none" stroke="#ff7f0e" stroke-linecap="square" stroke-width="1.5" id="line2d_19"/><text x="321.172" y="72.749" font-family="DejaVu Sans" font-size="10" font-weight="400" id="text_18">2016 Add. x+0.2</text><path d="M293.172 83.927h20" fill="none" stroke="#2ca02c" stroke-linecap="square" stroke-width="1.5" id="line2d_21"/><text x="321.172" y="87.427" font-family="DejaVu Sans" font-size="10" font-weight="400" id="text_19">2019 Add. x+0.2</text></g></g></g><defs><clipPath id="p2ebdd2d03b"><path d="M57.6 41.472h357.12v266.112H57.6z"/></clipPath></defs></svg>
